; generated by PrusaSlicer 2.5.2+win64 on 2023-05-29 at 20:09:55 UTC

; 

; external perimeters extrusion width = 0.40mm
; perimeters extrusion width = 0.40mm
; infill extrusion width = 0.40mm
; solid infill extrusion width = 0.40mm
; top infill extrusion width = 0.40mm
; first layer extrusion width = 0.50mm

M107
;TYPE:Custom
M140 S70 ;Set Bed Temperature
M104 S230 ;Set Hotend Temperature
M190 S70 ;Wait for Bed Temperature
M109 S230 ;Wait for Hotend Temperature
M105 ;Report Temperatures
G28 ;home all axes
M413 S0 ;"Power Loss" OFF (avoid forming short stop-drops!)

G1 Z10 F5000 lift nozzle 10mm
G21 ; set units to millimeters
G90 ; use absolute coordinates
M82 ; use absolute distances for extrusion
G92 E0
Filament gcode
M107
;LAYER_CHANGE
;Z:0.25
;HEIGHT:0.25
G1 Z.25 F7800
G1 E-2 F2400
G92 E0
G1 X60.252 Y71.496 F7800
G1 E2 F2400
;TYPE:Skirt/Brim
;WIDTH:0.5
G1 F1800
G1 X63.411 Y68.84 E2.19146
G1 X67.021 Y66.842 E2.38291
G1 X70.949 Y65.576 E2.57437
G1 X75.5 Y65.085 E2.78671
G1 X144.5 Y65.085 E5.9878
G1 X148.608 Y65.484 E6.17926
G1 X152.561 Y66.666 E6.37072
G1 X156.214 Y68.587 E6.56218
G1 X159.428 Y71.176 E6.75363
G1 X162.084 Y74.334 E6.94509
G1 X164.082 Y77.945 E7.13655
G1 X165.348 Y81.873 E7.32801
G1 X165.839 Y86.424 E7.54035
G1 X165.839 Y133.576 E9.72786
G1 X165.44 Y137.684 E9.91932
G1 X164.258 Y141.638 E10.11078
G1 X162.336 Y145.29 E10.30223
G1 X159.748 Y148.504 E10.49369
G1 X156.589 Y151.16 E10.68515
G1 X152.979 Y153.158 E10.87661
G1 X149.051 Y154.424 E11.06806
G1 X144.5 Y154.915 E11.2804
G1 X75.5 Y154.915 E14.4815
G1 X71.392 Y154.516 E14.67295
G1 X67.439 Y153.334 E14.86441
G1 X63.786 Y151.413 E15.05587
G1 X60.572 Y148.824 E15.24733
G1 X57.916 Y145.666 E15.43878
G1 X55.918 Y142.055 E15.63024
G1 X54.652 Y138.127 E15.8217
G1 X54.161 Y133.576 E16.03404
G1 X54.161 Y86.424 E18.22155
G1 X54.56 Y82.316 E18.41301
G1 X55.742 Y78.362 E18.60447
G1 X57.664 Y74.71 E18.79593
G1 X60.214 Y71.542 E18.9846
G1 X60.571 Y71.834 F7800
G1 F1800
G1 X60.692 Y71.685 E18.99348
G1 X63.841 Y69.087 E19.18292
G1 X67.436 Y67.15 E19.37236
G1 X71.339 Y65.95 E19.5618
G1 X75.5 Y65.531 E19.7558
G1 X144.5 Y65.531 E22.95689
G1 X148.564 Y65.93 E23.14633
G1 X152.472 Y67.112 E23.33577
G1 X156.077 Y69.032 E23.52521
G1 X159.238 Y71.616 E23.71465
G1 X161.837 Y74.765 E23.90409
G1 X163.774 Y78.36 E24.09353
G1 X164.974 Y82.263 E24.28297
G1 X165.393 Y86.424 E24.47697
G1 X165.393 Y133.576 E26.66448
G1 X164.994 Y137.64 E26.85392
G1 X163.812 Y141.549 E27.04336
G1 X161.892 Y145.153 E27.2328
G1 X159.308 Y148.315 E27.42224
G1 X156.159 Y150.913 E27.61168
G1 X152.564 Y152.85 E27.80112
G1 X148.661 Y154.05 E27.99056
G1 X144.5 Y154.469 E28.18456
G1 X75.5 Y154.469 E31.38565
G1 X71.436 Y154.07 E31.57509
G1 X67.528 Y152.888 E31.76453
G1 X63.923 Y150.968 E31.95397
G1 X60.762 Y148.384 E32.14341
G1 X58.163 Y145.235 E32.33285
G1 X56.226 Y141.64 E32.52229
G1 X55.026 Y137.737 E32.71173
G1 X54.607 Y133.576 E32.90573
G1 X54.607 Y86.424 E35.09325
G1 X55.006 Y82.36 E35.28269
G1 X56.188 Y78.451 E35.47212
G1 X58.108 Y74.847 E35.66156
G1 X60.533 Y71.88 E35.83934
G1 X60.886 Y72.173 F7800
G1 F1800
G1 X61.131 Y71.878 E35.85717
G1 X64.272 Y69.337 E36.04457
G1 X67.85 Y67.463 E36.23197
G1 X71.727 Y66.329 E36.41937
G1 X75.5 Y65.978 E36.59517
G1 X144.5 Y65.978 E39.79626
G1 X148.52 Y66.377 E39.98366
G1 X152.382 Y67.558 E40.17106
G1 X155.938 Y69.476 E40.35846
G1 X159.046 Y72.055 E40.54586
G1 X161.587 Y75.195 E40.73326
G1 X163.461 Y78.774 E40.92066
G1 X164.595 Y82.651 E41.10806
G1 X164.946 Y86.424 E41.28386
G1 X164.946 Y133.576 E43.47137
G1 X164.547 Y137.596 E43.65877
G1 X163.366 Y141.459 E43.84617
G1 X161.448 Y145.014 E44.03357
G1 X158.869 Y148.122 E44.22097
G1 X155.728 Y150.663 E44.40837
G1 X152.15 Y152.537 E44.59577
G1 X148.273 Y153.671 E44.78318
G1 X144.5 Y154.022 E44.95897
G1 X75.5 Y154.022 E48.16006
G1 X71.48 Y153.623 E48.34747
G1 X67.618 Y152.442 E48.53487
G1 X64.062 Y150.524 E48.72227
G1 X60.954 Y147.945 E48.90967
G1 X58.413 Y144.805 E49.09707
G1 X56.539 Y141.226 E49.28447
G1 X55.405 Y137.349 E49.47187
G1 X55.054 Y133.576 E49.64766
G1 X55.054 Y86.424 E51.83518
G1 X55.453 Y82.404 E52.02258
G1 X56.634 Y78.541 E52.20998
G1 X58.552 Y74.986 E52.39738
G1 X60.848 Y72.219 E52.56417
G1 E50.56417 F2400
G92 E0
G1 X143.804 Y131.92 F7800
G1 E2 F2400
;TYPE:Perimeter
;WIDTH:0.499999
G1 F1800
G1 X143.804 Y132.88 E2.04451
G1 X76.196 Y132.88 E5.18099
G1 X76.196 Y131.92 E5.22551
G1 X143.744 Y131.92 E8.3592
G1 X144.25 Y131.474 F7800
;TYPE:External perimeter
G1 F1800
G1 X144.25 Y133.326 E8.44513
G1 X75.75 Y133.326 E11.62302
G1 X75.75 Y131.474 E11.70895
G1 X144.19 Y131.474 E14.88406
G1 X144.053 Y131.822 F7800
G1 E12.88406 F2400
G92 E0
G1 X76.676 Y132.4 F7800
G1 E2 F2400
;TYPE:Perimeter
;WIDTH:0.566804
G1 F1800
G1 X143.324 Y132.4 E5.55474
G1 E3.55474 F2400
G92 E0
G1 X78.088 Y122.325 F7800
G1 E2 F2400
;WIDTH:0.499999
G1 F1800
G1 X78.273 Y122.362 E2.00876
G1 X143.357 Y122.362 E5.02818
G1 X143.357 Y124.222 E5.11445
G1 X143.357 Y126.081 E5.20072
G1 X76.643 Y126.081 E8.29578
G1 X76.643 Y122.162 E8.47761
;WIDTH:0.534127
G1 X76.66 Y121.246 E8.52334
G1 X76.66 Y97.393 E9.71458
G1 X76.643 Y96.662 E9.7511
;WIDTH:0.499999
G1 X76.643 Y94.067 E9.87149
G1 X143.357 Y94.067 E12.96656
G1 X143.357 Y96.277 E13.06909
G1 X78.273 Y96.277 E16.08851
G1 X78.08 Y96.294 E16.09749
G1 X77.65 Y96.467 E16.11901
G1 X77.305 Y96.838 E16.14252
;WIDTH:0.534127
G1 X77.14 Y97.393 E16.17142
G1 X77.14 Y121.246 E17.36267
;WIDTH:0.544531
G1 X77.152 Y121.443 E17.37272
G1 X77.38 Y121.916 E17.39951
;WIDTH:0.499999
G1 X77.844 Y122.276 E17.42675
G1 X78.029 Y122.313 E17.43551
G1 X78.181 Y121.897 F7800
G1 F1800
G1 X78.273 Y121.916 E17.43989
G1 X143.804 Y121.916 E20.48002
G1 X143.804 Y126.528 E20.69397
G1 X76.196 Y126.528 E23.83045
G1 X76.196 Y93.62 E25.3571
G1 X143.804 Y93.62 E28.49358
G1 X143.804 Y96.723 E28.63753
G1 X78.273 Y96.723 E31.67766
G1 X78.157 Y96.733 E31.68305
G1 X77.899 Y96.837 E31.69596
G1 X77.692 Y97.06 E31.71006
G1 X77.604 Y97.393 E31.72604
G1 X77.604 Y121.246 E32.83268
G1 X77.614 Y121.362 E32.83806
G1 X77.738 Y121.648 E32.85252
G1 X78.016 Y121.864 E32.86887
G1 X78.122 Y121.886 E32.87389
G1 X78.273 Y121.47 F7800
;TYPE:External perimeter
G1 F1800
G1 X144.25 Y121.47 E35.93472
G1 X144.25 Y126.974 E36.19009
G1 X75.75 Y126.974 E39.36798
G1 X75.75 Y93.174 E40.93605
G1 X144.25 Y93.174 E44.11394
G1 X144.25 Y97.169 E44.29931
G1 X78.235 Y97.173 E47.36193
G1 X78.08 Y97.282 E47.37072
G1 X78.05 Y97.393 E47.37605
G1 X78.05 Y121.246 E48.48268
G1 X78.095 Y121.38 E48.48923
G1 X78.22 Y121.443 E48.49571
G1 X78.377 Y121.856 F7800
G1 E46.49571 F2400
G92 E0
G1 X143.223 Y123.406 F7800
G1 E2 F2400
;TYPE:Solid infill
;WIDTH:0.503545
G1 F1800
G1 X142.514 Y122.697 E2.04688
G1 X141.878 Y122.697 E2.07663
G1 X143.023 Y123.841 E2.15231
G1 X143.023 Y124.478 E2.18206
G1 X141.242 Y122.697 E2.29981
G1 X140.606 Y122.697 E2.32956
G1 X143.023 Y125.114 E2.48939
G1 X143.019 Y125.746 E2.51898
G1 X139.969 Y122.697 E2.72064
G1 X139.333 Y122.697 E2.75039
G1 X142.383 Y125.746 E2.95206
G1 X141.747 Y125.746 E2.98181
G1 X138.697 Y122.697 E3.18348
G1 X138.061 Y122.697 E3.21323
G1 X141.11 Y125.746 E3.41489
G1 X140.474 Y125.746 E3.44465
G1 X137.424 Y122.697 E3.64631
G1 X136.788 Y122.697 E3.67606
G1 X139.838 Y125.746 E3.87773
G1 X139.202 Y125.746 E3.90748
G1 X136.152 Y122.697 E4.10915
G1 X135.516 Y122.697 E4.1389
G1 X138.565 Y125.746 E4.34056
G1 X137.929 Y125.746 E4.37031
G1 X134.879 Y122.697 E4.57198
G1 X134.243 Y122.697 E4.60173
G1 X137.293 Y125.746 E4.8034
G1 X136.657 Y125.746 E4.83315
G1 X133.607 Y122.697 E5.03481
G1 X132.971 Y122.697 E5.06457
G1 X136.02 Y125.746 E5.26623
G1 X135.384 Y125.746 E5.29598
G1 X132.335 Y122.697 E5.49765
G1 X131.698 Y122.697 E5.5274
G1 X134.748 Y125.746 E5.72907
G1 X134.112 Y125.746 E5.75882
G1 X131.062 Y122.697 E5.96048
G1 X130.426 Y122.697 E5.99024
G1 X133.475 Y125.746 E6.1919
G1 X132.839 Y125.746 E6.22165
G1 X129.79 Y122.697 E6.42332
G1 X129.153 Y122.697 E6.45307
G1 X132.203 Y125.746 E6.65474
G1 X131.567 Y125.746 E6.68449
G1 X128.517 Y122.697 E6.88615
G1 X127.881 Y122.697 E6.91591
G1 X130.93 Y125.746 E7.11757
G1 X130.294 Y125.746 E7.14732
G1 X127.245 Y122.697 E7.34899
G1 X126.608 Y122.697 E7.37874
G1 X129.658 Y125.746 E7.58041
G1 X129.022 Y125.746 E7.61016
G1 X125.972 Y122.697 E7.81182
G1 X125.336 Y122.697 E7.84157
G1 X128.385 Y125.746 E8.04324
G1 X127.749 Y125.746 E8.07299
G1 X124.7 Y122.697 E8.27466
G1 X124.063 Y122.697 E8.30441
G1 X127.113 Y125.746 E8.50607
G1 X126.477 Y125.746 E8.53583
G1 X123.427 Y122.697 E8.73749
G1 X122.791 Y122.697 E8.76724
G1 X125.84 Y125.746 E8.96891
G1 X125.204 Y125.746 E8.99866
G1 X122.155 Y122.697 E9.20033
G1 X121.518 Y122.697 E9.23008
G1 X124.568 Y125.746 E9.43174
G1 X123.932 Y125.746 E9.4615
G1 X120.882 Y122.697 E9.66316
G1 X120.246 Y122.697 E9.69291
G1 X123.295 Y125.746 E9.89458
G1 X122.659 Y125.746 E9.92433
G1 X119.61 Y122.697 E10.126
G1 X118.973 Y122.697 E10.15575
G1 X122.023 Y125.746 E10.35741
G1 X121.387 Y125.746 E10.38717
G1 X118.337 Y122.697 E10.58883
G1 X117.701 Y122.697 E10.61858
G1 X120.75 Y125.746 E10.82025
G1 X120.114 Y125.746 E10.85
G1 X117.065 Y122.697 E11.05167
G1 X116.428 Y122.697 E11.08142
G1 X119.478 Y125.746 E11.28308
G1 X118.842 Y125.746 E11.31283
G1 X115.792 Y122.697 E11.5145
G1 X115.156 Y122.697 E11.54425
G1 X118.205 Y125.746 E11.74592
G1 X117.569 Y125.746 E11.77567
G1 X114.52 Y122.697 E11.97733
G1 X113.883 Y122.697 E12.00709
G1 X116.933 Y125.746 E12.20875
G1 X116.297 Y125.746 E12.2385
G1 X113.247 Y122.697 E12.44017
G1 X112.611 Y122.697 E12.46992
G1 X115.66 Y125.746 E12.67159
G1 X115.024 Y125.746 E12.70134
G1 X111.975 Y122.697 E12.903
G1 X111.338 Y122.697 E12.93276
G1 X114.388 Y125.746 E13.13442
G1 X113.752 Y125.746 E13.16417
G1 X110.702 Y122.697 E13.36584
G1 X110.066 Y122.697 E13.39559
G1 X113.115 Y125.746 E13.59726
G1 X112.479 Y125.746 E13.62701
G1 X109.43 Y122.697 E13.82867
G1 X108.793 Y122.697 E13.85842
G1 X111.843 Y125.746 E14.06009
G1 X111.207 Y125.746 E14.08984
G1 X108.157 Y122.697 E14.29151
G1 X107.521 Y122.697 E14.32126
G1 X110.57 Y125.746 E14.52293
G1 X109.934 Y125.746 E14.55268
G1 X106.885 Y122.697 E14.75434
G1 X106.248 Y122.697 E14.78409
G1 X109.298 Y125.746 E14.98576
G1 X108.662 Y125.746 E15.01551
G1 X105.612 Y122.697 E15.21718
G1 X104.976 Y122.697 E15.24693
G1 X108.025 Y125.746 E15.44859
G1 X107.389 Y125.746 E15.47835
G1 X104.34 Y122.697 E15.68001
G1 X103.703 Y122.697 E15.70976
G1 X106.753 Y125.746 E15.91143
G1 X106.117 Y125.746 E15.94118
G1 X103.067 Y122.697 E16.14285
G1 X102.431 Y122.697 E16.1726
G1 X105.48 Y125.746 E16.37426
G1 X104.844 Y125.746 E16.40401
G1 X101.795 Y122.697 E16.60568
G1 X101.158 Y122.697 E16.63543
G1 X104.208 Y125.746 E16.8371
G1 X103.572 Y125.746 E16.86685
G1 X100.522 Y122.697 E17.06851
G1 X99.886 Y122.697 E17.09827
G1 X102.935 Y125.746 E17.29993
G1 X102.299 Y125.746 E17.32968
G1 X99.25 Y122.697 E17.53135
G1 X98.613 Y122.697 E17.5611
G1 X101.663 Y125.746 E17.76277
G1 X101.027 Y125.746 E17.79252
G1 X97.977 Y122.697 E17.99418
G1 X97.341 Y122.697 E18.02394
G1 X100.39 Y125.746 E18.2256
G1 X99.754 Y125.746 E18.25535
G1 X96.705 Y122.697 E18.45702
G1 X96.068 Y122.697 E18.48677
G1 X99.118 Y125.746 E18.68844
G1 X98.482 Y125.746 E18.71819
G1 X95.432 Y122.697 E18.91985
G1 X94.796 Y122.697 E18.9496
G1 X97.845 Y125.746 E19.15127
G1 X97.209 Y125.746 E19.18102
G1 X94.16 Y122.697 E19.38269
G1 X93.523 Y122.697 E19.41244
G1 X96.573 Y125.746 E19.61411
G1 X95.937 Y125.746 E19.64386
G1 X92.887 Y122.697 E19.84552
G1 X92.251 Y122.697 E19.87527
G1 X95.3 Y125.746 E20.07694
G1 X94.664 Y125.746 E20.10669
G1 X91.615 Y122.697 E20.30836
G1 X90.978 Y122.697 E20.33811
G1 X94.028 Y125.746 E20.53977
G1 X93.392 Y125.746 E20.56953
G1 X90.342 Y122.697 E20.77119
G1 X89.706 Y122.697 E20.80094
G1 X92.755 Y125.746 E21.00261
G1 X92.119 Y125.746 E21.03236
G1 X89.07 Y122.697 E21.23403
G1 X88.433 Y122.697 E21.26378
G1 X91.483 Y125.746 E21.46544
G1 X90.847 Y125.746 E21.4952
G1 X87.797 Y122.697 E21.69686
G1 X87.161 Y122.697 E21.72661
G1 X90.21 Y125.746 E21.92828
G1 X89.574 Y125.746 E21.95803
G1 X86.525 Y122.697 E22.1597
G1 X85.888 Y122.697 E22.18945
G1 X88.938 Y125.746 E22.39111
G1 X88.302 Y125.746 E22.42086
G1 X85.252 Y122.697 E22.62253
G1 X84.616 Y122.697 E22.65228
G1 X87.665 Y125.746 E22.85395
G1 X87.029 Y125.746 E22.8837
G1 X83.98 Y122.697 E23.08536
G1 X83.343 Y122.697 E23.11512
G1 X86.393 Y125.746 E23.31678
G1 X85.757 Y125.746 E23.34653
G1 X82.707 Y122.697 E23.5482
G1 X82.071 Y122.697 E23.57795
G1 X85.12 Y125.746 E23.77962
G1 X84.484 Y125.746 E23.80937
G1 X81.435 Y122.697 E24.01103
G1 X80.798 Y122.697 E24.04079
G1 X83.848 Y125.746 E24.24245
G1 X83.212 Y125.746 E24.2722
G1 X80.162 Y122.697 E24.47387
G1 X79.526 Y122.697 E24.50362
G1 X82.575 Y125.746 E24.70529
G1 X81.939 Y125.746 E24.73504
G1 X78.89 Y122.697 E24.9367
G1 X78.251 Y122.695 E24.96656
G1 X81.303 Y125.746 E25.16836
G1 X80.667 Y125.746 E25.19812
G1 X76.984 Y122.064 E25.44165
G1 X76.977 Y122.693 E25.47109
G1 X80.03 Y125.746 E25.67299
G1 X79.394 Y125.746 E25.70274
G1 X76.977 Y123.33 E25.86256
G1 X76.977 Y123.966 E25.89232
G1 X78.758 Y125.746 E26.01006
G1 X78.122 Y125.746 E26.03982
G1 X76.977 Y124.602 E26.11549
G1 X76.977 Y125.238 E26.14524
G1 X77.686 Y125.947 E26.19212
G1 E24.19212 F2400
G92 E0
G1 X142.319 Y94.2 F7800
G1 E2 F2400
;WIDTH:0.500977
G1 F1800
G1 X143.023 Y94.904 E2.04626
G1 X143.023 Y95.537 E2.07567
G1 X141.887 Y94.401 E2.15032
G1 X141.255 Y94.401 E2.17973
G1 X142.795 Y95.942 E2.28104
G1 X142.163 Y95.942 E2.31045
G1 X140.622 Y94.401 E2.41176
G1 X139.989 Y94.401 E2.44117
G1 X141.53 Y95.942 E2.54248
G1 X140.898 Y95.942 E2.57189
G1 X139.357 Y94.401 E2.6732
G1 X138.724 Y94.401 E2.70261
G1 X140.265 Y95.942 E2.80391
G1 X139.632 Y95.942 E2.83333
G1 X138.092 Y94.401 E2.93463
G1 X137.459 Y94.401 E2.96405
G1 X139 Y95.942 E3.06535
G1 X138.367 Y95.942 E3.09477
G1 X136.826 Y94.401 E3.19607
G1 X136.194 Y94.401 E3.22549
G1 X137.734 Y95.942 E3.32679
G1 X137.102 Y95.942 E3.35621
G1 X135.561 Y94.401 E3.45751
G1 X134.929 Y94.401 E3.48693
G1 X136.469 Y95.942 E3.58823
G1 X135.837 Y95.942 E3.61765
G1 X134.296 Y94.401 E3.71895
G1 X133.663 Y94.401 E3.74837
G1 X135.204 Y95.942 E3.84967
G1 X134.571 Y95.942 E3.87908
G1 X133.031 Y94.401 E3.98039
G1 X132.398 Y94.401 E4.0098
G1 X133.939 Y95.942 E4.11111
G1 X133.306 Y95.942 E4.14052
G1 X131.765 Y94.401 E4.24183
G1 X131.133 Y94.401 E4.27124
G1 X132.674 Y95.942 E4.37255
G1 X132.041 Y95.942 E4.40196
G1 X130.5 Y94.401 E4.50327
G1 X129.868 Y94.401 E4.53268
G1 X131.408 Y95.942 E4.63399
G1 X130.776 Y95.942 E4.6634
G1 X129.235 Y94.401 E4.76471
G1 X128.602 Y94.401 E4.79412
G1 X130.143 Y95.942 E4.89543
G1 X129.51 Y95.942 E4.92484
G1 X127.97 Y94.401 E5.02615
G1 X127.337 Y94.401 E5.05556
G1 X128.878 Y95.942 E5.15687
G1 X128.245 Y95.942 E5.18628
G1 X126.705 Y94.401 E5.28759
G1 X126.072 Y94.401 E5.317
G1 X127.613 Y95.942 E5.41831
G1 X126.98 Y95.942 E5.44772
G1 X125.439 Y94.401 E5.54903
G1 X124.807 Y94.401 E5.57844
G1 X126.347 Y95.942 E5.67975
G1 X125.715 Y95.942 E5.70916
G1 X124.174 Y94.401 E5.81047
G1 X123.541 Y94.401 E5.83988
G1 X125.082 Y95.942 E5.94119
G1 X124.45 Y95.942 E5.9706
G1 X122.909 Y94.401 E6.07191
G1 X122.276 Y94.401 E6.10132
G1 X123.817 Y95.942 E6.20263
G1 X123.184 Y95.942 E6.23204
G1 X121.644 Y94.401 E6.33335
G1 X121.011 Y94.401 E6.36276
G1 X122.552 Y95.942 E6.46407
G1 X121.919 Y95.942 E6.49348
G1 X120.378 Y94.401 E6.59479
G1 X119.746 Y94.401 E6.6242
G1 X121.286 Y95.942 E6.72551
G1 X120.654 Y95.942 E6.75492
G1 X119.113 Y94.401 E6.85623
G1 X118.481 Y94.401 E6.88564
G1 X120.021 Y95.942 E6.98694
G1 X119.389 Y95.942 E7.01636
G1 X117.848 Y94.401 E7.11766
G1 X117.215 Y94.401 E7.14708
G1 X118.756 Y95.942 E7.24838
G1 X118.123 Y95.942 E7.2778
G1 X116.583 Y94.401 E7.3791
G1 X115.95 Y94.401 E7.40852
G1 X117.491 Y95.942 E7.50982
G1 X116.858 Y95.942 E7.53924
G1 X115.317 Y94.401 E7.64054
G1 X114.685 Y94.401 E7.66996
G1 X116.226 Y95.942 E7.77126
G1 X115.593 Y95.942 E7.80068
G1 X114.052 Y94.401 E7.90198
G1 X113.42 Y94.401 E7.9314
G1 X114.96 Y95.942 E8.0327
G1 X114.328 Y95.942 E8.06212
G1 X112.787 Y94.401 E8.16342
G1 X112.154 Y94.401 E8.19284
G1 X113.695 Y95.942 E8.29414
G1 X113.062 Y95.942 E8.32356
